!!!COM: Bach, Johann Sebastian
!!!OPR: Joh. Seb. Bachs vierstimmige Choralgesänge
!!!XEN: Four-part Chorales
!!!OTL: 70. Gott sei uns gnädig
!!!SCT: BWV 323
!!!SCA: Thematisch-systematisches Verzeichnis der musikalischen Werke Johann Sebastian Bach: Bach-Werke-Verzeichnis (Schmieder)
!!!YOR: Bach Gesellschaft Edition xxxix
!!!ENC: Steven Rasmussen
!!!CDT: 1685/3//-1750/7/28/
!!!OCY: Deutschland
!!!YEC: Copyright (c) 1994, 2000 Center for Computer Assisted Research in the Humanities
!!!YEM: Rights to all derivative editions reserved
!!!YEN: United States of America
**kern	**silbe	**kern	**silbe	**kern	**silbe	**kern	**silbe
*I:[BASSO]	*I:[BASSO]	*I:[TENORE]	*I:[TENORE]	*I:[ALTO]	*I:[ALTO]	*I:[SOPRANO]	*I:[SOPRANO]
*clefF4	*	*clefGv2	*	*clefG2	*	*clefG2	*
*k[f#c#g#]	*	*k[f#c#g#]	*	*k[f#c#g#]	*	*k[f#c#g#]	*
*f#:	*	*f#:	*	*f#:	*	*f#:	*
*M4/4	*	*M4/4	*	*M4/4	*	*M4/4	*
=1-	=1-	=1-	=1-	=1-	=1-	=1-	=1-
2F#	.	2A	.	2f#	.	2cc#	Gott
2G#	.	2B	.	2e	.	2ee	.
=2	=2	=2	=2	=2	=2	=2	=2
4A	.	4c#	.	4e	.	4cc#	sei
4G#	.	4B	.	4e#	.	4cc#	uns
4F#	.	4A	.	4f#	.	4cc#	gnÃ¤-
4E#	.	4G#	.	4g#	.	4cc#	-dig
=3	=3	=3	=3	=3	=3	=3	=3
(4F#	.	(4A	.	(4f#	.	2dd	und
4G#)	.	2B)	.	2e)	.	.	.
(4A	.	.	.	.	.	2cc#	barm-
4F#)	.	4A	.	4f#	.	.	.
=4	=4	=4	=4	=4	=4	=4	=4
4D	.	2A	.	2f#	.	1b	-her-
4BB	.	.	.	.	.	.	.
2E	.	2G#	.	2e	.	.	.
=5	=5	=5	=5	=5	=5	=5	=5
1AA;	.	1A;	.	1e;	.	1a;	-zig
=6	=6	=6	=6	=6	=6	=6	=6
(4AA	und	2A	.	1e	.	2cc#	und
4BB)	.	.	.	.	.	.	.
4C#	geb'	(2A	geb'	.	.	2ee	.
4D	uns	.	.	.	.	.	.
=7	=7	=7	=7	=7	=7	=7	=7
2E	sei-	4G#)	.	4e	.	4b	geb'
.	.	4B	uns	4g#	.	4b	uns
2D#	-nen	4A	sei-	4f#	.	4b	sei-
.	.	4f#	-nen	4a	.	4b	-nen
=8	=8	=8	=8	=8	=8	=8	=8
2E	gÃ¶tt-	2e	gÃ¶tt-	2g#	gÃ¶tt-	2b	gÃ¶tt-
2D	-li-	2B	.	[2f#	-li-	4f#	-li-
.	.	.	.	.	.	4g#	-chen
=9	=9	=9	=9	=9	=9	=9	=9
1C#	-chen	2c#	-li-	2.f#]	.	2a	Se-
.	.	2B	-chen	.	.	2g#	.
.	.	.	.	4e#	-chen	.	.
=10	=10	=10	=10	=10	=10	=10	=10
4FF#	Se-	2A#	Se-	2c#	Se-	[1f#	-gen.
4E	.	.	.	.	.	.	.
4D	.	[2B	.	[2d	.	.	.
4BB	.	.	.	.	.	.	.
=11	=11	=11	=11	=11	=11	=11	=11
1FF#;	-gen.	2B]	.	2d]	.	1f#;]	.
.	.	2A#;	-gen.	2c#;	-gen.	.	.
==|!	==|!	==|!	==|!	==|!	==|!	==|!	==|!
*-	*-	*-	*-	*-	*-	*-	*-
!!!RWG: Key is interpreted using the Humdrum key tool.
!!!URL-pdf: https://s9.imslp.org/files/imglnks/usimg/6/6b/IMSLP24489-PMLP09471-CCARH_Bach_Chorales.pdf#page=49 Musedata edition
!!!URL-pdf: https://s9.imslp.org/files/imglnks/usimg/7/7a/IMSLP04155-Bach_-_BGA_253-438.pdf#page=38 	Bach-Gesellschaft Ausgabe, Band 39 (pp.175-276) Leipzig: Breitkopf und Härtel, 1892. Plate B.W. XXXIX.
!!!END: 1994/06/06
!!!EMD: Converted from MuseData to Humdrum Dec 19, 2000, by Andreas Kornstaedt using muse2kern.
!!!EED: Craig Stuart Sapp
!!!EEV: 2024/03/31
!!!filter-keyboard: satb2gs
